X: 34230
T: Reel Ste-Louise
R: reel
M: 4/4
K: Dmajor
Ad|:f3f edeg|fafd Adfd|efec Acec|dcde fdAd|
f3f edeg|fafd Adfd|efec Acec|1 dfec dBAd:|2 dfec ddef||
|:gbge Aceg|fafd Adfd|efec Acec|dcde fdef|
gbge Aceg|fafd Adfd|efec Acec|1 dfec ddef:|2 dfec dBAd||

